Adwaita++/actions/symbolic/view-bottom-pane-symbolic.svg

<svg height="16" viewBox="0 0 16 16" width="16" xmlns="http://www.w3.org/2000/svg">
  <path d="m1 1v2 10 2h2 10 2v-2-10-2h-2-10zm2 8h1.0039062 7.9999998.996094v.9804688c.000139.0068905.003906.0126062.003906.0195312v2c0 .006925-.003767.012641-.003906.019531v.980469h-.996094-7.9999998-1.0039062z" fill="#474747"/>
</svg>

<svg xmlns="http://www.w3.org/2000/svg" width="16" height="16" version="1.1" viewBox="0 0 16 16">
 <path style="fill:#474747" d="M 1 1 L 1 3 L 1 13 L 1 15 L 3 15 L 13 15 L 15 15 L 15 13 L 15 3 L 15 1 L 13 1 L 3 1 L 1 1 z M 3 9 L 4.0039062 9 L 12.003906 9 L 13 9 L 13 9.9804688 C 13.000139 9.9873593 13.003906 9.993075 13.003906 10 L 13.003906 12 C 13.003906 12.006925 13.000139 12.012641 13 12.019531 L 13 13 L 12.003906 13 L 4.0039062 13 L 3 13 L 3 9 z"/>
</svg>
